COLOR/action 16/16/mail-message-new.svg

<?xml version="1.0" encoding="UTF-8" standalone="no"?>
<svg
   xmlns:dc="http://purl.org/dc/elements/1.1/"
   xmlns:cc="http://creativecommons.org/ns#"
   xmlns:rdf="http://www.w3.org/1999/02/22-rdf-syntax-ns#"
   xmlns:svg="http://www.w3.org/2000/svg"
   xmlns="http://www.w3.org/2000/svg"
   xmlns:xlink="http://www.w3.org/1999/xlink"
   xmlns:sodipodi="http://sodipodi.sourceforge.net/DTD/sodipodi-0.dtd"
   xmlns:inkscape="http://www.inkscape.org/namespaces/inkscape"
   height="16"
   width="16"
   version="1.1"
   id="svg32"
   sodipodi:docname="evolution-mail.svg"
   inkscape:version="0.92.5 (2060ec1f9f, 2020-04-08)">
  <metadata
     id="metadata38">
    <rdf:RDF>
      <cc:Work
         rdf:about="">
        <dc:format>image/svg+xml</dc:format>
        <dc:type
           rdf:resource="http://purl.org/dc/dcmitype/StillImage" />
      </cc:Work>
    </rdf:RDF>
  </metadata>
  <defs
     id="defs36">
    <linearGradient
       y2="45.972855"
       y1="22.817245"
       xlink:href="#a-3"
       x2="34.761932"
       x1="34.918625"
       gradientUnits="userSpaceOnUse"
       id="d-0"
       gradientTransform="matrix(0.31914183,0,0,0.31914183,0.27556378,32.814522)" />
    <linearGradient
       id="linearGradient1190">
      <stop
         id="stop2-9"
         stop-color="#fff"
         offset="0" />
      <stop
         id="stop4-3"
         stop-opacity=".098039"
         stop-color="#fff"
         offset=".125" />
      <stop
         id="stop6-6"
         stop-opacity=".098039"
         stop-color="#fff"
         offset=".92500001" />
      <stop
         id="stop8-0"
         stop-opacity=".498039"
         stop-color="#fff"
         offset="1" />
    </linearGradient>
    <filter
       id="c-6"
       style="color-interpolation-filters:sRGB">
      <feBlend
         id="feBlend16-2"
         mode="multiply"
         in2="BackgroundImage" />
    </filter>
    <linearGradient
       y2="42.46537"
       y1="1.774151"
       xlink:href="#a-3"
       x2="25.074343"
       x1="24.059015"
       gradientUnits="userSpaceOnUse"
       id="f-6"
       gradientTransform="matrix(0.31914183,0,0,0.31914183,0.27556378,32.814522)" />
    <linearGradient
       y2="38.116615"
       y1="5.5256934"
       x2="25.183651"
       x1="25.065369"
       gradientUnits="userSpaceOnUse"
       id="e-1"
       gradientTransform="matrix(0.31914183,0,0,0.31914183,0.27556378,32.814522)">
      <stop
         id="stop20-8"
         stop-color="#fff"
         offset="0" />
      <stop
         id="stop22-7"
         stop-opacity=".098039"
         stop-color="#fff"
         offset=".125" />
      <stop
         id="stop24-9"
         stop-opacity=".098039"
         stop-color="#fff"
         offset=".92500001" />
      <stop
         id="stop26-2"
         stop-opacity="0"
         stop-color="#fff"
         offset="1" />
    </linearGradient>
    <linearGradient
       y2="6.9269948"
       y1="23.79875"
       x2="27.27836"
       x1="23.612318"
       gradientUnits="userSpaceOnUse"
       id="b-0"
       gradientTransform="matrix(0.34782603,0,0,0.34782603,-0.38573823,31.833195)">
      <stop
         id="stop11-2"
         stop-color="#f6f5f4"
         offset="0" />
      <stop
         id="stop13-3"
         stop-color="#e9e7e4"
         offset="1" />
    </linearGradient>
    <filter
       id="c-6-3"
       style="color-interpolation-filters:sRGB">
      <feBlend
         id="feBlend16-2-5"
         mode="multiply"
         in2="BackgroundImage" />
    </filter>
  </defs>
  <sodipodi:namedview
     pagecolor="#ffffff"
     bordercolor="#666666"
     borderopacity="1"
     objecttolerance="10"
     gridtolerance="10"
     guidetolerance="10"
     inkscape:pageopacity="0"
     inkscape:pageshadow="2"
     inkscape:window-width="1920"
     inkscape:window-height="1016"
     id="namedview34"
     showgrid="false"
     inkscape:zoom="14.75"
     inkscape:cx="8"
     inkscape:cy="8"
     inkscape:window-x="0"
     inkscape:window-y="27"
     inkscape:window-maximized="1"
     inkscape:current-layer="g963" />
  <clipPath
     id="a">
    <path
       d="m412.21109-140.08377c90.81111 0 103.78933 12.94582 103.78933 103.671926v72.656487c0 90.725907-12.97822 103.671927-103.78933 103.671927h-92.42191c-90.81071 0-103.78912-12.94602-103.78912-103.671927v-72.656487c0-90.726106 12.97841-103.671926 103.78932-103.671926z"
       id="path2" />
  </clipPath>
  <linearGradient
     id="b"
     gradientTransform="matrix(0 1 -1 0 252.000013 -320.000287)"
     gradientUnits="userSpaceOnUse"
     x1="317.26004"
     x2="338.31595"
     y1="255.44786"
     y2="230.85617">
    <stop
       offset="0"
       stop-color="#80a3fa"
       id="stop5" />
    <stop
       offset="1"
       stop-color="#a2bcfe"
       id="stop7" />
  </linearGradient>
  <path
     d="m15.500015 4.8542203c0-3.04166-.30899-3.36894-3.32331-3.35403h-4.1766906-4.17669c-3.01431996-.0149-3.32330996.31237-3.32330996 3.35403v6.2914597c0 3.04167.30895 3.35404 3.32330996 3.35404h4.17669 4.1766906c3.01435 0 3.32331-.31238 3.32331-3.35404z"
     fill="url(#b)"
     id="path10" />
  <path
     d="m4.1457544 3.9999003c-.44678-.005-.74699.0948-.90107.27964-.16178.19259-.24468.50857-.24468.94767v7.7725097h10.0000006v-7.7724997c0-.43911-.0829-.75509-.24468-.94768-.15407-.18489-.4589-.27964-.90106-.27964h-.74571-5.1839906z"
     fill="#faf8f6"
     id="path12" />
  <g
     clip-path="url(#a)"
     enable-background="new"
     stroke-width="20.000021"
     transform="matrix(.04999994 0 0 .04999994 -10.299985 7.5039)"
     id="g20">
    <g
       fill-rule="evenodd"
       stroke-width="20.000021"
       id="g18">
      <path
         d="m.5 5.875v5.271484c0 .760418.01963969 1.349621.09570312 1.806641.07606344.45702.20853063.780615.43554688 1.009766.2270162.22915.5490947.364595 1.0019531.441406.4528585.076811 1.0374257.095703 1.7910157.095703h4.1757812 4.175781c.753588 0 1.338158-.018892 1.791016-.095703.452858-.076812.774936-.212255 1.001953-.441406.227017-.229152.359483-.552747.435547-1.009766s.095703-1.046226.095703-1.806641v-5.271484l-7.5 3.515625z"
         fill="#a2bcfe"
         transform="matrix(20.000024 0 0 20.000024 205.99995 -150.07819)"
         id="path14" />
      <path
         d="m.58984375 12.832031c.00459864.03183.0007623.090469.00585937.121094.07606344.45702.20853063.780615.43554688 1.009766.2270162.22915.5490947.364595 1.0019531.441406.4528585.076811 1.0374257.095703 1.7910157.095703h4.1757812 4.175781c.753588 0 1.338158-.018892 1.791016-.095703.452858-.076812.774936-.212255 1.001953-.441406.227017-.229152.359483-.552747.435547-1.009766s.095703-1.046226.095703-1.806641v-5.349609z"
         fill="#fff"
         opacity=".2"
         transform="matrix(20.000024 0 0 20.000024 205.99995 -150.07819)"
         id="path16" />
    </g>
  </g>
  <path
     d="m15.000005 6.9997203-1 .43945v2.5605497l1-.4394495z"
     fill="#e93549"
     id="path22" />
  <path
     d="m5.0000044 5.9997203v.5h6.0000006v-.5zm0 1v.5h3v-.5z"
     fill="#80a3fa"
     fill-opacity=".996078"
     opacity=".5"
     id="path24" />
  <path
     d="m1.0000044 6.9997203 1 .43945v2.5605497l-1-.4394495z"
     fill="#e93549"
     id="path26" />
  <path
     d="m3.8242188 1.5c-3.01432001-.0149-3.3242188.3118556-3.3242188 3.3535156v.5019532c0-3.0416601.30989879-3.3703688 3.3242188-3.3554688h4.1757812 4.175781c3.01432-.01491 3.324219.3138088 3.324219 3.3554688v-.5019532c0-3.04166-.309899-3.3684256-3.324219-3.3535156h-4.175781z"
     fill="#fff"
     opacity=".3"
     id="path28" />
  <path
     d="m.50418614 10.646484v.5c0 3.04167.30985879 3.353516 3.32421876 3.353516h4.1757812 4.1757809c3.01435 0 3.324219-.311856 3.324219-3.353516v-.5c0 3.04166-.309869 3.353516-3.324219 3.353516h-4.1757809-4.1757812c-3.01435997 0-3.32421876-.311846-3.32421876-3.353516z"
     opacity=".2"
     id="path30" />
  <g
     style="enable-background:new"
     id="g962"
     transform="translate(-25.903522,-1.898303)">
    <g
       transform="translate(0,-32)"
       style="fill:none"
       id="g72">
      <g
         id="g963"
         transform="translate(-2.7118644,-2.440678)">
        <g
           transform="translate(14.615371,37.80312)"
           id="g928">
          <g
             transform="translate(3.041051,-1.4185513)"
             id="g924">
            <g
               style="enable-background:new"
               id="g923"
               transform="translate(-12.978083,-5.7405013)">
              <g
                 transform="translate(0,-32)"
                 style="fill:none"
                 id="g72-0">
                <g
                   id="g963-9">
                  <g
                     transform="translate(9.937036,39.159052)"
                     id="g928-3">
                    <g
                       style="stroke-width:1.03486001"
                       transform="matrix(1.0001356,0,0,1.0001356,2.1811889,-0.72988635)"
                       id="g902-6">
                      <circle
                         style="fill:#45a925"
                         cx="10.763678"
                         cy="-23.316275"
                         r="4.5"
                         transform="rotate(90)"
                         id="circle894-0" />
                      <g
                         style="fill:#f4f4f4"
                         id="g900-6">
                        <rect
                           height="1"
                           rx="0.26666701"
                           ry="0.33333299"
                           width="5"
                           x="20.816277"
                           y="10.263678"
                           id="rect896-2" />
                        <rect
                           height="5"
                           rx="0.33333299"
                           ry="0.26666701"
                           width="1"
                           x="22.816275"
                           y="8.2636776"
                           id="rect898-6" />
                      </g>
                      <path
                         inkscape:connector-curvature="0"
                         style="opacity:0.3;fill:#ffffff;fill-opacity:1;stroke-width:1.03500032"
                         d="M 11.5,6.9980469 A 4.5006102,4.5006102 0 0 0 7,11.5 4.5006102,4.5006102 0 0 0 7.0117188,11.792969 4.5006102,4.5006102 0 0 1 11.5,7.4980469 4.5006102,4.5006102 0 0 1 15.990234,11.707031 4.5006102,4.5006102 0 0 0 16.001953,11.5 4.5006102,4.5006102 0 0 0 11.5,6.9980469 Z"
                         transform="matrix(0.99986442,0,0,0.99986442,11.817224,-0.7341529)"
                         id="circle925" />
                      <path
                         id="path930"
                         d="m 23.317619,15.263678 a 4.5,4.5 0 0 0 4.49939,-4.501343 4.5,4.5 0 0 0 -0.01172,-0.292929 4.5,4.5 0 0 1 -4.487673,4.294339 4.5,4.5 0 0 1 -4.489625,-4.208413 4.5,4.5 0 0 0 -0.01172,0.207003 4.5,4.5 0 0 0 4.501343,4.501343 z"
                         style="opacity:0.2;fill:#000000;fill-opacity:1;stroke-width:1.03486001"
                         inkscape:connector-curvature="0" />
                    </g>
                  </g>
                </g>
              </g>
            </g>
          </g>
        </g>
      </g>
    </g>
  </g>
</svg>

<?xml version="1.0" encoding="UTF-8" standalone="no"?>
<svg
   xmlns:osb="http://www.openswatchbook.org/uri/2009/osb"
   xmlns:dc="http://purl.org/dc/elements/1.1/"
   xmlns:cc="http://creativecommons.org/ns#"
   xmlns:rdf="http://www.w3.org/1999/02/22-rdf-syntax-ns#"
   xmlns:svg="http://www.w3.org/2000/svg"
   xmlns="http://www.w3.org/2000/svg"
   xmlns:xlink="http://www.w3.org/1999/xlink"
   xmlns:sodipodi="http://sodipodi.sourceforge.net/DTD/sodipodi-0.dtd"
   xmlns:inkscape="http://www.inkscape.org/namespaces/inkscape"
   height="16"
   id="svg7384"
   version="1.1"
   width="16"
   sodipodi:docname="mail-app.svg"
   inkscape:version="0.92.4 (5da689c313, 2019-01-14)">
  <sodipodi:namedview
     pagecolor="#ffffff"
     bordercolor="#666666"
     borderopacity="1"
     objecttolerance="10"
     gridtolerance="10"
     guidetolerance="10"
     inkscape:pageopacity="0"
     inkscape:pageshadow="2"
     inkscape:window-width="1920"
     inkscape:window-height="1016"
     id="namedview23"
     showgrid="false"
     inkscape:zoom="52.4375"
     inkscape:cx="3.794994"
     inkscape:cy="8"
     inkscape:window-x="0"
     inkscape:window-y="27"
     inkscape:window-maximized="1"
     inkscape:current-layer="svg7384" />
  <metadata
     id="metadata20854">
    <rdf:RDF>
      <cc:Work
         rdf:about="">
        <dc:title />
        <dc:format>image/svg+xml</dc:format>
        <dc:type
           rdf:resource="http://purl.org/dc/dcmitype/StillImage" />
      </cc:Work>
    </rdf:RDF>
  </metadata>
  <defs
     id="defs7386">
    <linearGradient
       id="linearGradient5606"
       osb:paint="solid">
      <stop
         id="stop5608"
         offset="0"
         style="stop-color:#000000;stop-opacity:1;" />
    </linearGradient>
    <linearGradient
       id="linearGradient4526"
       osb:paint="solid">
      <stop
         id="stop4528"
         offset="0"
         style="stop-color:#ffffff;stop-opacity:1;" />
    </linearGradient>
    <linearGradient
       id="linearGradient3600-4"
       osb:paint="gradient">
      <stop
         id="stop3602-7"
         offset="0"
         style="stop-color:#f4f4f4;stop-opacity:1" />
      <stop
         id="stop3604-6"
         offset="1"
         style="stop-color:#dbdbdb;stop-opacity:1" />
    </linearGradient>
    <clipPath
       clipPathUnits="userSpaceOnUse"
       id="clipPath983">
      <path
         sodipodi:nodetypes="scccssscsss"
         inkscape:connector-curvature="0"
         id="path985"
         d="m 325.09646,237 c -2.80769,0 -3.10979,0.28839 -3.09603,3.10176 V 244 v 3.89824 c -0.0138,2.81337 0.28834,3.10176 3.09603,3.10176 h 5.8075 C 333.71166,251 334,250.71165 334,247.89824 V 244 240.10176 C 334,237.28836 333.71165,237 330.90396,237 Z"
         style="color:#000000;display:inline;overflow:visible;visibility:visible;opacity:1;fill:#46a926;fill-opacity:1;fill-rule:nonzero;stroke:none;stroke-width:2;stroke-miterlimit:4;stroke-dasharray:none;stroke-opacity:1;marker:none;enable-background:accumulate" />
    </clipPath>
    <clipPath
       clipPathUnits="userSpaceOnUse"
       id="clipPath4653">
      <path
         sodipodi:nodetypes="sssssssss"
         inkscape:connector-curvature="0"
         id="path4655"
         d="m 412.21109,-140.08377 c 90.81111,0 103.78933,12.94582 103.78933,103.671926 v 72.656487 c 0,90.725907 -12.97822,103.671927 -103.78933,103.671927 h -92.42191 c -90.81071,0 -103.78912,-12.94602 -103.78912,-103.671927 v -72.656487 c 0,-90.726106 12.97841,-103.671926 103.78932,-103.671926 z"
         style="display:inline;opacity:1;fill:#f22c42;fill-opacity:1;stroke:none;stroke-width:2;stroke-linecap:round;stroke-linejoin:round;stroke-miterlimit:4;stroke-dasharray:none;stroke-dashoffset:0;stroke-opacity:1;enable-background:new" />
    </clipPath>
    <linearGradient
       inkscape:collect="always"
       xlink:href="#linearGradient1061"
       id="linearGradient4878"
       x1="317.26004"
       y1="255.44786"
       x2="338.31595"
       y2="230.85617"
       gradientUnits="userSpaceOnUse"
       gradientTransform="rotate(90,286.00015,-34.000137)" />
    <linearGradient
       inkscape:collect="always"
       id="linearGradient1061">
      <stop
         style="stop-color:#80a3fa;stop-opacity:1;"
         offset="0"
         id="stop1057" />
      <stop
         style="stop-color:#a2bcfe;stop-opacity:1"
         offset="1"
         id="stop1059" />
    </linearGradient>
  </defs>
  <g
     id="layer9"
     label="status"
     style="display:inline"
     transform="translate(-813.00024,107)" />
  <g
     id="layer2"
     style="display:inline"
     transform="translate(-572.00004,-260)" />
  <g
     id="layer4"
     style="display:inline"
     transform="translate(-572.00004,-260)" />
  <g
     id="g1812"
     style="display:inline"
     transform="translate(-572.00004,-260)" />
  <g
     id="g6217"
     style="display:inline"
     transform="translate(-572.00004,-260)" />
  <g
     id="layer3"
     style="display:inline"
     transform="translate(-572.00004,-260)" />
  <g
     id="layer1"
     style="display:inline"
     transform="translate(-572.00004,-260)" />
  <path
     style="color:#000000;display:inline;overflow:visible;visibility:visible;fill:url(#linearGradient4878);fill-opacity:1;fill-rule:nonzero;stroke:none;stroke-width:1;marker:none;enable-background:accumulate"
     d="m 15.500015,4.8542203 c 0,-3.04166 -0.30899,-3.36894 -3.32331,-3.35403 h -4.1766906 -4.17669 c -3.01431996,-0.0149 -3.32330996,0.31237 -3.32330996,3.35403 V 11.14568 c 0,3.04167 0.30895,3.35404 3.32330996,3.35404 h 4.17669 4.1766906 c 3.01435,0 3.32331,-0.31238 3.32331,-3.35404 z"
     id="path918"
     inkscape:connector-curvature="0"
     sodipodi:nodetypes="scccssscsss" />
  <path
     style="font-style:normal;font-variant:normal;font-weight:normal;font-stretch:normal;font-size:15px;line-height:125%;font-family:Ubuntu;-inkscape-font-specification:Ubuntu;text-align:center;letter-spacing:0px;word-spacing:0px;writing-mode:lr-tb;text-anchor:middle;display:inline;fill:#faf8f6;fill-opacity:1;stroke:none;stroke-width:1;enable-background:new"
     d="m 4.1457544,3.9999003 c -0.44678,-0.005 -0.74699,0.0948 -0.90107,0.27964 -0.16178,0.19259 -0.24468,0.50857 -0.24468,0.94767 V 12.99972 H 13.000005 V 5.2272203 c 0,-0.43911 -0.0829,-0.75509 -0.24468,-0.94768 -0.15407,-0.18489 -0.4589,-0.27964 -0.90106,-0.27964 h -0.74571 -5.1839906 z"
     id="path4690"
     inkscape:connector-curvature="0"
     sodipodi:nodetypes="ccsccscsccc" />
  <g
     style="display:inline;stroke-width:20.00002098;enable-background:new"
     transform="matrix(0.04999994,0,0,0.04999994,-10.299985,7.5039003)"
     id="g4639"
     clip-path="url(#clipPath4653)">
    <g
       id="g4637"
       style="stroke-width:20.00002098">
      <path
         style="display:inline;opacity:1;fill:#a2bcfe;fill-opacity:1;fill-rule:evenodd;stroke:none;stroke-width:0.99999976px;stroke-linecap:butt;stroke-linejoin:miter;stroke-opacity:1;enable-background:new"
         d="M 0.5 5.875 L 0.5 11.146484 C 0.5 11.906902 0.51963969 12.496105 0.59570312 12.953125 C 0.67176656 13.410145 0.80423375 13.73374 1.03125 13.962891 C 1.2582662 14.192041 1.5803447 14.327486 2.0332031 14.404297 C 2.4860616 14.481108 3.0706288 14.5 3.8242188 14.5 L 8 14.5 L 12.175781 14.5 C 12.929369 14.5 13.513939 14.481108 13.966797 14.404297 C 14.419655 14.327485 14.741733 14.192042 14.96875 13.962891 C 15.195767 13.733739 15.328233 13.410144 15.404297 12.953125 C 15.480361 12.496106 15.5 11.906899 15.5 11.146484 L 15.5 5.875 L 8 9.390625 L 0.5 5.875 z "
         id="path4633"
         transform="matrix(20.000024,0,0,20.000024,205.99995,-150.07819)" />
      <path
         style="display:inline;opacity:0.2;fill:#ffffff;fill-opacity:1;fill-rule:evenodd;stroke:none;stroke-width:0.9946593px;stroke-linecap:butt;stroke-linejoin:miter;stroke-opacity:1;enable-background:new"
         d="M 0.58984375 12.832031 C 0.59444239 12.863861 0.59060605 12.9225 0.59570312 12.953125 C 0.67176656 13.410145 0.80423375 13.73374 1.03125 13.962891 C 1.2582662 14.192041 1.5803447 14.327486 2.0332031 14.404297 C 2.4860616 14.481108 3.0706288 14.5 3.8242188 14.5 L 8 14.5 L 12.175781 14.5 C 12.929369 14.5 13.513939 14.481108 13.966797 14.404297 C 14.419655 14.327485 14.741733 14.192042 14.96875 13.962891 C 15.195767 13.733739 15.328233 13.410144 15.404297 12.953125 C 15.480361 12.496106 15.5 11.906899 15.5 11.146484 L 15.5 5.796875 L 0.58984375 12.832031 z "
         id="path4635"
         transform="matrix(20.000024,0,0,20.000024,205.99995,-150.07819)" />
    </g>
  </g>
  <path
     sodipodi:nodetypes="ccccc"
     inkscape:connector-curvature="0"
     id="path4859"
     d="m 15.000005,6.9997203 -1,0.43945 V 9.99972 l 1,-0.4394495 z"
     style="color:#000000;display:inline;overflow:visible;visibility:visible;opacity:1;fill:#e93549;fill-opacity:1;fill-rule:nonzero;stroke:none;stroke-width:63.99998856;stroke-linecap:butt;stroke-linejoin:miter;stroke-miterlimit:4;stroke-dasharray:none;stroke-dashoffset:0;stroke-opacity:1;marker:none;enable-background:accumulate" />
  <path
     sodipodi:nodetypes="cccccccccc"
     inkscape:connector-curvature="0"
     id="path4711"
     d="m 5.0000044,5.9997203 v 0.5 h 6.0000006 v -0.5 z m 0,1 v 0.5 h 3 v -0.5 z"
     style="color:#000000;display:inline;overflow:visible;visibility:visible;opacity:0.5;fill:#80a3fa;fill-opacity:0.99607843;fill-rule:nonzero;stroke:none;stroke-width:4.50000048;marker:none;enable-background:accumulate" />
  <path
     style="color:#000000;display:inline;overflow:visible;visibility:visible;opacity:1;fill:#e93549;fill-opacity:1;fill-rule:nonzero;stroke:none;stroke-width:63.99998856;stroke-linecap:butt;stroke-linejoin:miter;stroke-miterlimit:4;stroke-dasharray:none;stroke-dashoffset:0;stroke-opacity:1;marker:none;enable-background:accumulate"
     d="m 1.0000044,6.9997203 1,0.43945 V 9.99972 l -1,-0.4394495 z"
     id="path4772"
     inkscape:connector-curvature="0"
     sodipodi:nodetypes="ccccc" />
  <path
     style="color:#000000;display:inline;overflow:visible;visibility:visible;fill:#ffffff;fill-opacity:1;fill-rule:nonzero;stroke:none;stroke-width:1;marker:none;enable-background:accumulate;opacity:0.3"
     d="M 3.8242188 1.5 C 0.80989879 1.4851 0.5 1.8118556 0.5 4.8535156 L 0.5 5.3554688 C 0.5 2.3138087 0.80989879 1.9851 3.8242188 2 L 8 2 L 12.175781 2 C 15.190101 1.98509 15.5 2.3138088 15.5 5.3554688 L 15.5 4.8535156 C 15.5 1.8118556 15.190101 1.48509 12.175781 1.5 L 8 1.5 L 3.8242188 1.5 z "
     id="path885" />
  <path
     style="color:#000000;display:inline;overflow:visible;visibility:visible;opacity:0.2;fill:#000000;fill-opacity:1;fill-rule:nonzero;stroke:none;stroke-width:1;marker:none;enable-background:accumulate"
     d="m 0.50418614,10.646484 v 0.5 c 0,3.04167 0.30985879,3.353516 3.32421876,3.353516 h 4.1757812 4.1757809 c 3.01435,0 3.324219,-0.311856 3.324219,-3.353516 v -0.5 C 15.504186,13.688144 15.194317,14 12.179967,14 H 8.0041861 3.8284049 C 0.81404493,14 0.50418614,13.688154 0.50418614,10.646484 Z"
     id="path894"
     inkscape:connector-curvature="0" />
  <g
     id="layer1-3"
     transform="matrix(1.2501689,0,0,1.2501689,-18.86798,-3.283277)"
     style="stroke-width:0.82788813;stroke-miterlimit:4;stroke-dasharray:none">
    <g
       id="g930"
       transform="matrix(0.80000038,0,0,0.80000038,5.2838964,2.2139926)"
       style="stroke-width:1.03485966;stroke-miterlimit:4;stroke-dasharray:none">
      <g
         id="g935"
         transform="translate(-0.05363593,-0.250301)"
         style="stroke-width:1.03485966;stroke-miterlimit:4;stroke-dasharray:none">
        <circle
           style="display:inline;opacity:1;fill:#45a925;fill-opacity:1;stroke:none;stroke-width:1.03485966;stroke-linecap:round;stroke-linejoin:round;stroke-miterlimit:4;stroke-dasharray:none;stroke-dashoffset:0;stroke-opacity:1;enable-background:new"
           id="path4980-6-2-7-9-6"
           cx="10.763678"
           cy="-23.316275"
           transform="rotate(90)"
           r="4.5"
           inkscape:export-filename="/home/stuart/yaru/icons/Suru/16x16/legacy/document-new.png"
           inkscape:export-xdpi="96"
           inkscape:export-ydpi="96" />
        <rect
           style="display:inline;opacity:1;fill:#f4f4f4;fill-opacity:1;stroke:none;stroke-width:1.03485966;stroke-linecap:round;stroke-linejoin:round;stroke-miterlimit:4;stroke-dasharray:none;stroke-dashoffset:0;stroke-opacity:1;enable-background:new"
           id="rect9617-7-7-9-1-1"
           width="5"
           height="1"
           x="20.816277"
           y="10.263678"
           rx="0.26666668"
           ry="0.33333334"
           inkscape:export-filename="/home/stuart/yaru/icons/Suru/16x16/legacy/document-new.png"
           inkscape:export-xdpi="96"
           inkscape:export-ydpi="96" />
        <rect
           style="display:inline;opacity:1;fill:#f4f4f4;fill-opacity:1;stroke:none;stroke-width:1.03485966;stroke-linecap:round;stroke-linejoin:round;stroke-miterlimit:4;stroke-dasharray:none;stroke-dashoffset:0;stroke-opacity:1;enable-background:new"
           id="rect9619-5-0-2-2-2"
           width="1"
           height="5"
           x="22.816275"
           y="8.2636776"
           rx="0.33333334"
           ry="0.26666668"
           inkscape:export-filename="/home/stuart/yaru/icons/Suru/16x16/legacy/document-new.png"
           inkscape:export-xdpi="96"
           inkscape:export-ydpi="96" />
      </g>
    </g>
  </g>
</svg>
